www/images/clients/brainmarket-logo.svg

<?xml version="1.0" encoding="UTF-8" standalone="no"?>
<svg
   width="1240"
   height="232.9528"
   viewBox="0 0 1240 232.9528"
   fill="none"
   version="1.1"
   id="svg1"
   sodipodi:docname="brainmarket-logo.svg"
   inkscape:version="1.4 (86a8ad7, 2024-10-11)"
   xmlns:inkscape="http://www.inkscape.org/namespaces/inkscape"
   xmlns:sodipodi="http://sodipodi.sourceforge.net/DTD/sodipodi-0.dtd"
   xmlns="http://www.w3.org/2000/svg"
   xmlns:svg="http://www.w3.org/2000/svg">
  <sodipodi:namedview
     id="namedview1"
     pagecolor="#ffffff"
     bordercolor="#000000"
     borderopacity="0.25"
     inkscape:showpageshadow="2"
     inkscape:pageopacity="0.0"
     inkscape:pagecheckerboard="0"
     inkscape:deskcolor="#d1d1d1"
     inkscape:zoom="0.66733203"
     inkscape:cx="365.63508"
     inkscape:cy="417.33348"
     inkscape:window-width="2560"
     inkscape:window-height="1369"
     inkscape:window-x="1912"
     inkscape:window-y="-8"
     inkscape:window-maximized="1"
     inkscape:current-layer="svg1" />
  <g
     id="Brain_market_logo_horizontalni_Barevne_Rgb 1"
     clip-path="url(#clip0_3002_2358)"
     transform="scale(7.7650936)">
    <g
       id="Components">
      <g
         id="_4d230252-18d7-4ad8-afa5-d1074ba1cd04_1">
        <path
           id="Vector"
           d="m 67.6599,6.40185 c 1.817,0 3.2404,-1.38095 3.2404,-3.1992 C 70.9003,1.38439 69.4768,0 67.6599,0 c -1.8184,0 -3.2432,1.38384 -3.2432,3.20265 0,1.8188 1.4248,3.1992 3.2432,3.1992 z"
           fill="#ec619f" />
        <path
           id="Vector_2"
           d="m 18.8959,16.3383 c -0.7132,-0.5972 -0.9394,-1.63 -0.3613,-2.3588 0.9743,-1.2282 1.5981,-2.9388 1.5981,-4.68826 0,-4.02445 -3.1177,-6.94615 -7.184,-6.94615 H 0 V 29.9735 h 13.976 c 4.3411,0 7.618,-3.177 7.618,-7.4809 0,-2.4566 -1.0437,-4.7692 -2.6981,-6.1543 z M 5.29057,7.24044 h 6.55823 c 0.9159,0 1.7835,0.48296 2.2239,1.28552 1.3617,2.48244 -0.2893,4.81314 -2.506,4.81314 H 5.29057 Z M 12.6324,25.0778 H 5.29057 v -7.0252 h 7.58703 c 0.9172,-1e-4 2.0976,0.6222 2.5609,1.414 1.5853,2.7092 -0.2533,5.6112 -2.8061,5.6112 z"
           fill="#6262f9" />
        <path
           id="Vector_3"
           d="m 96.7924,24.5258 c -0.9387,0 -1.6995,-0.7607 -1.6995,-1.6994 v -6.1282 c 0,-3.928 -3.0289,-7.2693 -6.951,-7.48988 -2.9129,-0.16378 -5.4812,0.80448 -7.4165,3.43858 -0.6795,-2.5625 -1.96,-4.13758 -2.1588,-4.36586 l -3.8452,3.34926 c 0.0577,0.0712 1.3004,1.7531 1.3004,4.3901 0,0.9208 0.0214,5.019 0.0214,5.956 0,1.7556 -1.5313,2.8619 -3.0072,2.8619 H 73.0285 C 71.5299,24.8355 70.151,23.2926 70.151,21.7751 L 70.1315,8.97949 h -5.1381 v 3.03541 c -1.582,-1.9342 -3.8348,-3.12205 -6.561,-3.12205 -5.1166,0 -9.5845,3.88545 -9.9036,10.35875 -0.0866,1.7709 -1.8089,2.7732 -3.3647,2.8175 -0.9865,0.0188 -2.6866,-0.2914 -2.9679,-2.741 -0.2908,-2.5395 2.0755,-5.5035 3.0114,-6.43 l -0.0027,-0.0028 0.0027,-0.0021 V 11.69 L 31.785,9.92259 C 31.5869,8.26302 30.244,6.99896 28.2296,6.99896 c -2.0144,0 -3.397,1.34121 -3.397,3.27744 0,1.3833 0.6715,2.6472 1.7385,3.3194 l -2.6623,13.41 c -0.2578,1.2983 0.736,2.5084 2.0595,2.5084 h 2.4992 l 2.8034,-14.7345 6.295,0.9156 c -0.4176,1.3039 -0.6459,2.7275 -0.4747,4.2182 0.5809,5.0656 4.3801,7.2949 7.9725,7.2949 0.0819,0 0.1644,-0.0014 0.2471,-0.0027 1.2288,-0.0353 2.4958,-0.3394 3.6615,-0.8938 0.7756,-0.3689 1.682,-0.193 2.2494,0.4526 1.7686,2.0127 4.3028,3.2355 7.211,3.2355 2.2428,0 4.4015,-0.8041 6.1003,-2.6197 0.7386,-0.7893 1.9922,-0.8783 2.7282,-0.0862 1.5095,1.6256 3.4847,2.6781 5.7569,2.6821 h 0.0201 c 4.4102,0 7.8988,-3.3883 8.1392,-7.8562 0.0014,-1.0973 -0.0214,-3.2973 -0.0235,-3.4785 0.0545,-2.6973 1.9284,-4.468 4.7339,-4.468 2.6476,0 4.3867,1.7763 4.3867,4.5059 v 5.5713 c 0,3.6757 1.6558,5.2542 5.4913,5.2542 H 97.227 V 24.526 Z M 59.0378,25.021 c -3.1626,0 -5.5343,-2.4109 -5.5343,-5.5745 0,-3.1606 2.3717,-5.5715 5.5343,-5.5715 3.2008,0 5.5725,2.4109 5.5725,5.5715 0,3.1636 -2.3717,5.5745 -5.5725,5.5745 z"
           fill="#6262f9" />
        <path
           id="Vector_4"
           d="m 144.472,17.6219 c -1.126,0 -1.992,0.7421 -2.202,1.8181 h 4.416 c -0.198,-1.0762 -1.089,-1.8181 -2.214,-1.8181 z"
           fill="#6262f9" />
        <path
           id="Vector_5"
           d="m 124.257,17.6714 c -1.299,0 -2.264,0.9771 -2.264,2.2757 0,1.2985 0.965,2.2756 2.264,2.2756 1.286,0 2.251,-0.9769 2.251,-2.2756 0,-1.2988 -0.965,-2.2757 -2.251,-2.2757 z"
           fill="#6262f9" />
        <path
           id="Vector_6"
           d="m 151.456,11.2901 h -41.158 c -4.547,0 -8.233,3.686 -8.233,8.2326 0,4.5466 3.686,8.2326 8.233,8.2326 h 41.158 c 4.547,0 8.233,-3.686 8.233,-8.2326 0,-4.5466 -3.686,-8.2326 -8.233,-8.2326 z M 119.884,23.101 h -0.322 c -0.952,0 -1.484,-0.5073 -1.484,-1.4347 v -2.3375 c 0,-1.0018 -0.643,-1.6574 -1.633,-1.6574 -1.039,0 -1.731,0.6679 -1.731,1.6823 v 3.7473 h -1.064 v -3.7722 c 0,-1.0018 -0.643,-1.6574 -1.633,-1.6574 -1.039,0 -1.731,0.6679 -1.731,1.6823 v 3.7473 h -1.064 v -6.3079 h 1.064 v 0.9029 c 0.445,-0.6801 1.162,-1.0512 2.065,-1.0512 1.014,0 1.794,0.4948 2.152,1.3111 0.446,-0.841 1.237,-1.3111 2.276,-1.3111 1.422,0 2.362,0.9403 2.362,2.3871 v 2.412 c 0,0.3833 0.236,0.6307 0.631,0.6307 h 0.112 z m 8.442,0 h -0.334 c -0.878,0 -1.398,-0.4329 -1.472,-1.2244 -0.52,0.8409 -1.397,1.3728 -2.461,1.3728 -1.806,0 -3.154,-1.4222 -3.154,-3.3023 0,-1.8802 1.348,-3.3024 3.154,-3.3024 1.051,0 1.929,0.5194 2.449,1.3482 V 16.793 h 1.063 v 4.6508 c 0,0.3833 0.248,0.6307 0.631,0.6307 h 0.124 z m 4.848,-5.3058 c -1.41,0 -2.263,0.841 -2.263,2.1396 v 3.1662 h -1.064 v -6.3079 h 1.064 v 1.1876 c 0.495,-0.8041 1.286,-1.2863 2.263,-1.2863 z m 7.2,5.3058 h -0.408 c -0.866,0 -1.534,-0.3835 -2.09,-1.1874 l -1.286,-1.5089 -1.002,0.8781 v 1.8181 h -1.064 v -8.9051 h 1.064 v 5.813 l 3.265,-3.2158 h 1.385 l -2.882,2.8573 1.509,1.744 c 0.346,0.4329 0.792,0.6802 1.212,0.6802 h 0.297 z m 7.425,-2.7087 h -5.541 c 0.185,1.1134 1.063,1.8802 2.263,1.8802 0.878,0 1.645,-0.4208 2.004,-1.0515 h 1.187 c -0.495,1.2122 -1.719,2.0284 -3.203,2.0284 -1.942,0 -3.389,-1.4222 -3.389,-3.3023 0,-1.8802 1.447,-3.3024 3.352,-3.3024 1.917,0 3.352,1.4224 3.352,3.3024 0,0.1237 -0.013,0.3216 -0.025,0.4452 z m 4.732,-2.6342 h -1.707 v 3.3144 c 0,0.6436 0.421,1.0515 1.089,1.0515 h 0.618 v 0.977 h -0.767 c -1.273,0 -2.003,-0.6801 -2.003,-1.8552 v -3.4879 h -1.138 V 16.793 h 0.73 c 0.296,0 0.47,-0.1607 0.47,-0.4699 v -1.2737 h 1.001 v 1.7436 h 1.707 z"
           fill="#6262f9" />
      </g>
    </g>
  </g>
  <defs
     id="defs1">
    <clipPath
       id="clip0_3002_2358">
      <rect
         width="159.689"
         height="30"
         fill="#ffffff"
         id="rect1"
         x="0"
         y="0" />
    </clipPath>
  </defs>
</svg>

<svg width="160" height="30" viewBox="0 0 160 30" fill="none" xmlns="http://www.w3.org/2000/svg">
<g id="Brain_market_logo_horizontalni_Barevne_Rgb 1" clip-path="url(#clip0_3002_2358)">
<g id="Components">
<g id="_4d230252-18d7-4ad8-afa5-d1074ba1cd04_1">
<path id="Vector" d="M67.6599 6.40185C69.4769 6.40185 70.9003 5.0209 70.9003 3.20265C70.9003 1.38439 69.4768 0 67.6599 0C65.8415 0 64.4167 1.38384 64.4167 3.20265C64.4167 5.02145 65.8415 6.40185 67.6599 6.40185Z" fill="#EC619F"/>
<path id="Vector_2" d="M18.8959 16.3383C18.1827 15.7411 17.9565 14.7083 18.5346 13.9795C19.5089 12.7513 20.1327 11.0407 20.1327 9.29124C20.1327 5.26679 17.015 2.34509 12.9487 2.34509H0V29.9735H13.976C18.3171 29.9735 21.594 26.7965 21.594 22.4926C21.594 20.036 20.5503 17.7234 18.8959 16.3383ZM5.29057 7.24044H11.8488C12.7647 7.24044 13.6323 7.7234 14.0727 8.52596C15.4344 11.0084 13.7834 13.3391 11.5667 13.3391H5.29057V7.24044ZM12.6324 25.0778H5.29057V18.0526H12.8776C13.7948 18.0525 14.9752 18.6748 15.4385 19.4666C17.0238 22.1758 15.1852 25.0778 12.6324 25.0778Z" fill="#6262F9"/>
<path id="Vector_3" d="M96.7924 24.5258C95.8537 24.5258 95.0929 23.7651 95.0929 22.8264V16.6982C95.0929 12.7702 92.064 9.4289 88.1419 9.20832C85.229 9.04454 82.6607 10.0128 80.7254 12.6469C80.0459 10.0844 78.7654 8.50932 78.5666 8.28104L74.7214 11.6303C74.7791 11.7015 76.0218 13.3834 76.0218 16.0204C76.0218 16.9412 76.0432 21.0394 76.0432 21.9764C76.0432 23.732 74.5119 24.8383 73.036 24.8383H73.0285C71.5299 24.8355 70.151 23.2926 70.151 21.7751L70.1315 8.97949H64.9934V12.0149C63.4114 10.0807 61.1586 8.89285 58.4324 8.89285C53.3158 8.89285 48.8479 12.7783 48.5288 19.2516C48.4422 21.0225 46.7199 22.0248 45.1641 22.0691C44.1776 22.0879 42.4775 21.7777 42.1962 19.3281C41.9054 16.7886 44.2717 13.8246 45.2076 12.8981L45.2049 12.8953L45.2076 12.8932V11.69L31.785 9.92259C31.5869 8.26302 30.244 6.99896 28.2296 6.99896C26.2152 6.99896 24.8326 8.34017 24.8326 10.2764C24.8326 11.6597 25.5041 12.9236 26.5711 13.5958L23.9088 27.0058C23.651 28.3041 24.6448 29.5142 25.9683 29.5142H28.4675L31.2709 14.7797L37.5659 15.6953C37.1483 16.9992 36.92 18.4228 37.0912 19.9135C37.6721 24.9791 41.4713 27.2084 45.0637 27.2084C45.1456 27.2084 45.2281 27.207 45.3108 27.2057C46.5396 27.1704 47.8066 26.8663 48.9723 26.3119C49.7479 25.943 50.6543 26.1189 51.2217 26.7645C52.9903 28.7772 55.5245 30 58.4327 30C60.6755 30 62.8342 29.1959 64.533 27.3803C65.2716 26.591 66.5252 26.502 67.2612 27.2941C68.7707 28.9197 70.7459 29.9722 73.0181 29.9762H73.0382C77.4484 29.9762 80.937 26.5879 81.1774 22.12C81.1788 21.0227 81.156 18.8227 81.1539 18.6415C81.2084 15.9442 83.0823 14.1735 85.8878 14.1735C88.5354 14.1735 90.2745 15.9498 90.2745 18.6794V24.2507C90.2745 27.9264 91.9303 29.5049 95.7658 29.5049H97.227V24.526L96.7924 24.5258ZM59.0378 25.021C55.8752 25.021 53.5035 22.6101 53.5035 19.4465C53.5035 16.2859 55.8752 13.875 59.0378 13.875C62.2386 13.875 64.6103 16.2859 64.6103 19.4465C64.6103 22.6101 62.2386 25.021 59.0378 25.021Z" fill="#6262F9"/>
<path id="Vector_4" d="M144.472 17.6219C143.346 17.6219 142.48 18.364 142.27 19.44H146.686C146.488 18.3638 145.597 17.6219 144.472 17.6219Z" fill="#6262F9"/>
<path id="Vector_5" d="M124.257 17.6714C122.958 17.6714 121.993 18.6485 121.993 19.9471C121.993 21.2456 122.958 22.2227 124.257 22.2227C125.543 22.2227 126.508 21.2458 126.508 19.9471C126.508 18.6483 125.543 17.6714 124.257 17.6714Z" fill="#6262F9"/>
<path id="Vector_6" d="M151.456 11.2901H110.298C105.751 11.2901 102.065 14.9761 102.065 19.5227C102.065 24.0693 105.751 27.7553 110.298 27.7553H151.456C156.003 27.7553 159.689 24.0693 159.689 19.5227C159.689 14.9761 156.003 11.2901 151.456 11.2901ZM119.884 23.101H119.562C118.61 23.101 118.078 22.5937 118.078 21.6663V19.3288C118.078 18.327 117.435 17.6714 116.445 17.6714C115.406 17.6714 114.714 18.3393 114.714 19.3537V23.101H113.65V19.3288C113.65 18.327 113.007 17.6714 112.017 17.6714C110.978 17.6714 110.286 18.3393 110.286 19.3537V23.101H109.222V16.7931H110.286V17.696C110.731 17.0159 111.448 16.6448 112.351 16.6448C113.365 16.6448 114.145 17.1396 114.503 17.9559C114.949 17.1149 115.74 16.6448 116.779 16.6448C118.201 16.6448 119.141 17.5851 119.141 19.0319V21.4439C119.141 21.8272 119.377 22.0746 119.772 22.0746H119.884L119.884 23.101ZM128.326 23.101H127.992C127.114 23.101 126.594 22.6681 126.52 21.8766C126 22.7175 125.123 23.2494 124.059 23.2494C122.253 23.2494 120.905 21.8272 120.905 19.9471C120.905 18.0669 122.253 16.6447 124.059 16.6447C125.11 16.6447 125.988 17.1641 126.508 17.9929V16.793H127.571V21.4438C127.571 21.8271 127.819 22.0745 128.202 22.0745H128.326L128.326 23.101ZM133.174 17.7952C131.764 17.7952 130.911 18.6362 130.911 19.9348V23.101H129.847V16.7931H130.911V17.9807C131.406 17.1766 132.197 16.6944 133.174 16.6944V17.7952ZM140.374 23.101H139.966C139.1 23.101 138.432 22.7175 137.876 21.9136L136.59 20.4047L135.588 21.2828V23.1009H134.524V14.1958H135.588V20.0088L138.853 16.793H140.238L137.356 19.6503L138.865 21.3943C139.211 21.8272 139.657 22.0745 140.077 22.0745H140.374L140.374 23.101ZM147.799 20.3923H142.258C142.443 21.5057 143.321 22.2725 144.521 22.2725C145.399 22.2725 146.166 21.8517 146.525 21.221H147.712C147.217 22.4332 145.993 23.2494 144.509 23.2494C142.567 23.2494 141.12 21.8272 141.12 19.9471C141.12 18.0669 142.567 16.6447 144.472 16.6447C146.389 16.6447 147.824 18.0671 147.824 19.9471C147.824 20.0708 147.811 20.2687 147.799 20.3923ZM152.531 17.7581H150.824V21.0725C150.824 21.7161 151.245 22.124 151.913 22.124H152.531V23.101H151.764C150.491 23.101 149.761 22.4209 149.761 21.2458V17.7579H148.623V16.793H149.353C149.649 16.793 149.823 16.6323 149.823 16.3231V15.0494H150.824V16.793H152.531V17.7581Z" fill="#6262F9"/>
</g>
</g>
</g>
<defs>
<clipPath id="clip0_3002_2358">
<rect width="159.689" height="30" fill="white"/>
</clipPath>
</defs>
</svg>
